images/global/icons/experiential/economic-indicators.svg

<svg xmlns="http://www.w3.org/2000/svg" viewBox="0 0 276 137"><path fill="#FFF" stroke="#1B1B1B" stroke-width="3" stroke-linecap="round" stroke-miterlimit="10" d="M125.5 63.5h10v31.8h-10zm16.3 15.9h10v15.9h-10zm17.4-27.7h10v43.7h-10z"/><path fill="none" stroke="#1B1B1B" stroke-width="3" stroke-miterlimit="10" d="M105.5 44.7h5.1m-5.1 5.6h10.3M105.5 56h5.1m-5.1 5.7h10.3m-10.3 5.6h5.1m-5.1 5.7h10.3m-10.3 5.7h5.1m-5.1 5.6h10.3M105.5 90h5.1m-5.1 5.7h65m-65-52.5v54"/></svg>

<svg xmlns="http://www.w3.org/2000/svg" viewBox="0 0 276 137"><path fill="#FFF" stroke="#1B1B1B" stroke-width="3" stroke-linecap="round" stroke-miterlimit="10" d="M125.5 63.5h10v31.8h-10zM141.8 79.4h10v15.9h-10zM159.2 51.7h10v43.7h-10z"/><path fill="none" stroke="#1B1B1B" stroke-width="3" stroke-miterlimit="10" d="M105.5 44.7h5.1M105.5 50.3h10.3M105.5 56h5.1M105.5 61.7h10.3M105.5 67.3h5.1M105.5 73h10.3M105.5 78.7h5.1M105.5 84.3h10.3M105.5 90h5.1M105.5 95.7h65M105.5 43.2v54"/></svg>
